front/src/Assets/image/sidebar/Chat.svg

<svg width="24" height="24" viewBox="0 0 24 24" fill="none" xmlns="http://www.w3.org/2000/svg">
<path d="M4 12C4 7.58172 7.58172 4 12 4V4C16.4183 4 20 7.58172 20 12V17.0909C20 17.9375 20 18.3608 19.8739 18.6989C19.6712 19.2425 19.2425 19.6712 18.6989 19.8739C18.3608 20 17.9375 20 17.0909 20H12C7.58172 20 4 16.4183 4 12V12Z" stroke="#666666"/>
<path d="M9 11L15 11" stroke="#666666" stroke-linecap="round" stroke-linejoin="round"/>
<path d="M12 15H15" stroke="#666666" stroke-linecap="round" stroke-linejoin="round"/>
</svg>

<svg xmlns="http://www.w3.org/2000/svg" fill="none" viewBox="0 0 24 24">
  <path stroke="#666" d="M4 12a8 8 0 018-8v0a8 8 0 018 8v5.09c0 .848 0 1.27-.126 1.609a2 2 0 01-1.175 1.175C18.36 20 17.937 20 17.09 20H12a8 8 0 01-8-8v0z"/>
  <path stroke="#666" stroke-linecap="round" stroke-linejoin="round" d="M9 11h6m-3 4h3"/>
</svg>
